img/seahorse.svg

<?xml version="1.0" encoding="UTF-8"?>
<svg width="49px" height="108px" viewBox="0 0 49 108" version="1.1" xmlns="http://www.w3.org/2000/svg" xmlns:xlink="http://www.w3.org/1999/xlink">
    <!-- Generator: Sketch 52.5 (67469) - http://www.bohemiancoding.com/sketch -->
    <title>Seahorse</title>
    <desc>Created with Sketch.</desc>
    <g id="Desktop" stroke="none" stroke-width="1" fill="none" fill-rule="evenodd">
        <g id="Hennings-hompage" transform="translate(-776.000000, -1707.000000)">
            <g id="Seahorse" transform="translate(776.000000, 1707.000000)">
                <g>
                    <path d="M15.4196775,96.8598451 C15.3355027,97.8384844 15.4454053,98.8997732 15.933395,99.794905 C16.5779889,100.977451 17.7597909,102.489166 20.2584661,102.492598 C22.7384047,102.495744 25.1998864,100.232461 24.8514422,97.4787157 C24.666873,96.0230541 23.9148934,94.8276385 22.3236834,94.7638639 C21.5498911,94.7329776 20.8809676,94.9017085 20.3627757,95.4648122 C19.827525,96.0456469 19.6935726,96.7214285 19.8837347,97.28825 C20.2531528,98.3892907 21.6824453,98.4290426 21.9970518,97.4787157 C22.2655161,96.6670914 22.2056709,96.6685214 21.6147699,96.582154 C20.5154647,96.4211447 21.3499411,95.5340205 21.7822804,95.4219145 C23.0854507,95.0833087 23.944816,96.3393531 23.9920769,97.5647971 C24.1640618,102.025585 16.2024186,102.559518 16.689849,96.3207641 C16.906578,93.5530051 19.5783566,91.3800942 22.3429792,91.2602666 C24.3978494,91.1710394 26.5041753,92.4313735 27.6932482,94.2728284 C29.0064859,96.3061789 28.9645383,99.7657346 28.1314602,101.64065 C27.2298677,101.64065 26.696295,105.550059 25.3981584,105.550059 C24.5122264,106.4552 23.2968663,106.743759 22.1170218,107.225929 C22.1170218,107.411819 22.1170218,107.597995 22.1170218,107.784457 C17.3171046,108.51 13.3843828,107.54137 10.0884247,102.757705 C10.0884247,100.116924 8.44827586,99.81378 8.44827586,97.1724262 L8.4919013,96.8598451 L15.4196775,96.8598451" id="Fill-1" fill="#8EC0D5"></path>
                    <path d="M30.4137931,81.2093023 C29.243612,82.2422466 27.8377811,83.4085323 26.133145,84.7249237 C24.9512788,85.6379381 21.4760692,87.4637091 19.0619795,89.6557175 C18.4588049,90.204042 17.9048747,90.7469503 17.4394175,91.255814 L8.44827586,91.255814 C9.21810254,89.2799372 11.1108134,86.2767903 12.3728061,85.5824867 C13.0310677,85.2203759 13.3738312,84.1154737 14.3907146,83.567665 C15.2389985,83.1108999 16.3120818,82.3949315 16.8551616,81.2093023 L30.4137931,81.2093023" id="Fill-2" fill="#52ACD1"></path>
                    <path d="M5.38401812,10.0465116 C5.83322926,9.78601881 6.27391803,9.63152851 6.68134208,9.60780046 C5.92312647,9.37051987 5.06896552,8.92561877 5.06896552,8.0966842 C9.97867277,6.89790141 12.9609508,3.3838275 17.9693526,5.07445168 C17.693063,3.99250379 16.217869,3.27215087 16.6186951,3.05988792 C17.6383549,2.80816416 18.7325167,2.4393476 21.1817345,3.88959623 C23.6304026,5.33958694 23.9586511,3.21902066 23.939682,0 C28.8463651,0 30.2140673,7.24685862 32.1030084,2.50898429 C35.9490695,4.59241101 35.1619878,11.0461851 38.3944385,9.60780046 C38.5984255,9.55467024 38.7444053,9.72437744 38.862069,10.0465116 L5.38401812,10.0465116" id="Fill-3" fill="#5ABBB0"></path>
                    <path d="M0.00128160285,27.4564587 C-0.0501101958,22.2745381 1.46014557,19.7040656 1.64277986,19.5129371 C-0.572040882,19.3773596 0.361576794,19.5374126 0.48977999,18.5952452 C0.575709288,17.9646586 0.721595684,17.3431471 0.914176779,16.744186 L39.3591104,16.744186 C39.7254842,17.9261579 40.2761501,18.9456017 41.1774406,19.3935849 C41.6463217,19.4997369 41.7339088,19.9543203 41.1779932,20.2686511 C39.9697334,21.0469154 38.301434,21.6953774 45.0379041,28.4198014 C46.0245714,29.4045946 48.754968,29.3597688 48.9497594,30.0431564 C49.3001078,31.2724291 47.7671955,31.3747309 45.9375369,33.3701678 C45.6833409,33.6473729 44.9224108,33.3734678 44.5513399,33.1955395 C43.525438,32.7046555 41.8394554,30.0376563 39.3082712,29.210441 C37.0945557,28.4874527 34.0668603,27.8994918 31.2430744,26.1273591 C30.7189333,25.7984531 30.0787462,25.7143015 29.4333094,25.738502 C24.4825662,25.9238554 24.5264979,25.5971494 18.5233279,22.868274 C18.0287509,24.3104006 20.8649704,26.2156358 22.9217475,27.4564587 L0.00128160285,27.4564587" id="Fill-4" fill="#208F9B"></path>
                    <path d="M11.1592096,41.8604651 C10.4466419,39.299448 7.83326351,37.2142694 7.09773592,36.4663389 C6.61368691,36.4263634 5.93515393,36.6940709 5.67989371,36.6582218 C4.79688244,36.5349422 6.28657567,35.8569046 5.09482108,34.826308 C4.27420675,34.1168056 3.72586999,32.911348 3.37931034,31.8139535 L33.6461492,31.8139535 L33.5040678,31.9331066 C32.5176019,32.7607303 38.9509698,34.1002996 41.0646324,35.6185984 C39.7913026,38.0945062 44.051312,39.5496179 45.6206897,41.8604651 L11.1592096,41.8604651" id="Fill-5" fill="#1A798D"></path>
                    <path d="M13.5172414,59.4418605 C14.119454,57.2880786 12.7666454,55.0956107 16.5255048,55.0956107 C17.6481792,55.0956107 20.2079328,56.8127559 21.1564667,56.2590294 C21.7116446,55.9348403 18.7985705,54.4240207 18.2509518,54.0884836 C18.2509518,52.5585789 18.0650526,51.2326787 16.6092155,50.5626362 L15.514258,51.0663287 C15.1729761,50.7524558 14.8829286,50.1208414 14.5525655,49.3953488 L44.7441077,49.3953488 C45.063272,51.2388685 45.6206897,52.0584971 45.6206897,54.0884836 C45.4098732,55.4757657 44.9342065,57.4317328 44.3359134,59.4418605 L13.5172414,59.4418605" id="Fill-6" fill="#1E84B5"></path>
                    <path d="M23.3135019,72.6540093 L24.0202069,70.5512931 L19.1163912,74.8103703 C13.2384762,77.2865359 15.7953818,71.6244443 13.3524338,69.7381121 C12.4687726,69.05569 11.9365039,67.6485491 11.8275862,66.1395349 L42.2413793,66.1395349 C41.4621559,68.0379888 40.6818125,69.4621515 40.0896251,69.7228956 C39.4937978,69.9849292 38.0610682,73.298777 37.6069179,73.7761629 C36.7422963,74.1008679 36.2959858,74.8075333 35.1536101,76.1860465 L20.6709181,76.1860465 L23.3135019,72.6540093" id="Fill-7" fill="#259BCA"></path>
                </g>
            </g>
        </g>
    </g>
</svg>

<svg xmlns="http://www.w3.org/2000/svg" width="49" height="108" viewBox="0 0 49 108">
    <g fill="none" fill-rule="evenodd">
        <path fill="#8EC0D5" d="M15.42 96.86c-.084.978.025 2.04.513 2.935.645 1.182 1.827 2.694 4.325 2.698 2.48.003 4.942-2.26 4.593-5.014-.184-1.456-.936-2.651-2.527-2.715-.774-.031-1.443.138-1.961.7-.535.582-.67 1.257-.48 1.824.37 1.101 1.8 1.141 2.114.19.269-.81.209-.81-.382-.896-1.1-.16-.265-1.048.167-1.16 1.303-.339 2.163.917 2.21 2.143.172 4.46-7.79 4.995-7.302-1.244.217-2.768 2.888-4.94 5.653-5.06 2.055-.09 4.161 1.17 5.35 3.012 1.313 2.033 1.272 5.493.438 7.368-.901 0-1.435 3.91-2.733 3.91-.886.904-2.101 1.193-3.281 1.675v.558c-4.8.726-8.733-.243-12.029-5.026 0-2.641-1.64-2.944-1.64-5.586l.044-.312h6.928"/>
        <path fill="#52ACD1" d="M30.414 81.21a84.592 84.592 0 0 1-4.28 3.515c-1.183.913-4.658 2.739-7.072 4.93a25.202 25.202 0 0 0-1.623 1.6H8.45c.77-1.975 2.662-4.978 3.924-5.673.658-.362 1-1.467 2.018-2.014.848-.457 1.921-1.173 2.464-2.359h13.559"/>
        <path fill="#5ABBB0" d="M5.384 10.047c.45-.261.89-.415 1.297-.44-.758-.236-1.612-.681-1.612-1.51 4.91-1.2 7.892-4.713 12.9-3.023-.276-1.081-1.751-1.802-1.35-2.014 1.02-.252 2.114-.62 4.563.83C23.63 5.34 23.959 3.219 23.94 0c4.906 0 6.274 7.247 8.163 2.509 3.846 2.083 3.059 8.537 6.291 7.099.204-.053.35.116.468.439H5.384"/>
        <path fill="#208F9B" d="M.001 27.456c-.051-5.181 1.46-7.752 1.642-7.943-2.215-.136-1.281.024-1.153-.918.086-.63.232-1.252.424-1.85H39.36c.366 1.181.917 2.2 1.818 2.649.47.106.557.56.001.875-1.208.778-2.877 1.426 3.86 8.15.987.986 3.717.94 3.912 1.624.35 1.23-1.183 1.332-3.012 3.327-.255.277-1.016.003-1.387-.174-1.026-.491-2.712-3.158-5.243-3.986-2.213-.723-5.241-1.31-8.065-3.083-.524-.329-1.164-.413-1.81-.388-4.95.185-4.907-.142-10.91-2.87-.494 1.441 2.342 3.347 4.399 4.587H.002"/>
        <path fill="#1A798D" d="M11.16 41.86c-.713-2.56-3.327-4.646-4.062-5.394-.484-.04-1.163.228-1.418.192-.883-.123.607-.801-.585-1.832-.82-.71-1.37-1.915-1.716-3.012h30.267l-.142.12c-.986.827 5.447 2.166 7.56 3.685-1.273 2.476 2.987 3.93 4.557 6.241H11.159"/>
        <path fill="#1E84B5" d="M13.517 59.442c.602-2.154-.75-4.346 3.009-4.346 1.122 0 3.682 1.717 4.63 1.163.556-.324-2.357-1.835-2.905-2.17 0-1.53-.186-2.856-1.642-3.526l-1.095.503c-.341-.314-.631-.945-.961-1.67h30.191c.32 1.843.877 2.662.877 4.692-.211 1.388-.687 3.344-1.285 5.354H13.517"/>
        <path fill="#259BCA" d="M23.314 72.654l.706-2.103-4.904 4.26c-5.878 2.476-3.32-3.187-5.764-5.073-.883-.682-1.415-2.09-1.524-3.598H42.24c-.779 1.898-1.56 3.322-2.151 3.583-.596.262-2.029 3.576-2.483 4.053-.865.325-1.311 1.032-2.453 2.41H20.67l2.643-3.532"/>
    </g>
</svg>
